!!!COM: Stravinsky, Igor (Fyodorovich)
!!!OTL: Symphony in C
!!!OMV: IV: Largo
!!!example: 394
!!!work: Str-37
**kern	**kern	**dynam	**kern	**dynam	**kern	**dynam	**kern	**dynam	**kern	**dynam	**kern	**kern	**dynam	**kern	**kern	**kern	**kern	**dynam	**kern	**dynam	**kern	**dynam
*part14	*part13	*part13	*part12	*part12	*part11	*part11	*part10	*part10	*part9	*part9	*part8	*part7	*part7	*part6	*part5	*part4	*part3	*part3	*part2	*part2	*part1	*part1
*staff14	*staff13	*	*staff12	*	*staff11	*	*staff10	*	*staff9	*	*staff8	*staff7	*	*staff6	*staff5	*staff4	*staff3	*	*staff2	*	*staff1	*
*I"Contrabass	*I"Violoncello	*	*I"Viola	*	*I"Violin II	*	*I"Violin I	*	*I"Timpani	*	*I"Trombone	*I"Trombone	*	*I"Trumpet in C	*I"Horn in F	*I"Horn in F	*I"Bassoon I. II.	*	*I"Clarinet in Bb I. II.	*	*I"Flute	*
*I'Cb.	*I'Vc.	*	*I'Vla.	*	*I'Vln. II	*	*I'Vln. I	*	*I'Timp.	*	*I'Tbn. III. Tuba	*I'Tbn. I. II.	*	*I'C Tpt. I.	*I'Hn. III. IV.	*I'Hn. I. II.	*I'Bsn.	*	*I'Cl.	*	*I'Fl.	*
*clefF4	*clefF4	*	*clefC3	*	*clefG2	*	*clefG2	*	*clefF4	*	*clefF4	*clefF4	*	*clefG2	*clefG2	*clefG2	*clefF4	*	*clefG2	*	*clefG2	*
*ITrd0c0	*	*	*	*	*	*	*	*	*	*	*	*	*	*	*ITrd4c7	*ITrd4c7	*	*	*ITrd1c2	*	*	*
*k[]	*k[]	*	*k[]	*	*k[]	*	*k[]	*	*k[]	*	*k[]	*k[]	*	*k[]	*k[]	*k[]	*k[]	*	*k[]	*	*k[]	*
*C:	*C:	*	*C:	*	*C:	*	*C:	*	*C:	*	*C:	*C:	*	*C:	*C:	*C:	*C:	*	*C:	*	*C:	*
*M4/4	*M4/4	*	*M4/4	*	*M4/4	*	*M4/4	*	*M4/4	*	*M4/4	*M4/4	*	*M4/4	*M4/4	*M4/4	*M4/4	*	*M4/4	*	*M4/4	*
*MM121	*MM121	*	*MM121	*	*MM121	*	*MM121	*	*MM121	*	*MM121	*MM121	*	*MM121	*MM121	*MM121	*MM121	*	*MM121	*	*MM121	*
=163	=163	=163	=163	=163	=163	=163	=163	=163	=163	=163	=163	=163	=163	=163	=163	=163	=163	=163	=163	=163	=163	=163
*	*	*	*	*	*	*	*	*	*	*	*	*	*	*	*	*	*	*	*^	*	*	*
!	!LO:TX:b:i:t={	!	!	!	!	!	!	!	!	!	!	!	!	!	!	!	!LO:TX:b:i:t=  stacc. e marc.	!	!	!	!	!	!
8F'	8C'	sf	8G-X'	sf	8A-X'	sf	8A-X'	sf	1r	.	1r	1r	.	1r	1r	1r	8C'L 8G-X	f	4A	4A-X	f	1r	.
4.r	4.r	.	4.r	.	4.r	.	4.r	.	.	.	.	.	.	.	.	.	8BB-X' 8F	.	.	.	.	.	.
!	!	!	!	!	!	!	!	!	!	!	!	!	!	!	!	!	!	!	!LO:TX:a:i:t=ben marc.	!	!	!	!
.	.	.	.	.	.	.	.	.	.	.	.	.	.	.	.	.	8AA-X' 8E-X	.	4B-	4B-	.	.	.
.	.	.	.	.	.	.	.	.	.	.	.	.	.	.	.	.	8GG-XJ 8D-X	.	.	.	.	.	.
2r	2r	.	2r	.	2r	.	2r	.	.	.	.	.	.	.	.	.	8FFL 8C	.	8A-XL	8A-L	.	.	.
.	.	.	.	.	.	.	.	.	.	.	.	.	.	.	.	.	8C 8G-	.	8B-J	8B-J	.	.	.
.	.	.	.	.	.	.	.	.	.	.	.	.	.	.	.	.	8BB- 8F	.	[4c	8c	.	.	.
.	.	.	.	.	.	.	.	.	.	.	.	.	.	.	.	.	8AA-J 8E-	.	.	8r	.	.	.
=164	=164	=164	=164	=164	=164	=164	=164	=164	=164	=164	=164	=164	=164	=164	=164	=164	=164	=164	=164	=164	=164	=164	=164
4r	4r	.	4r	.	4r	.	1r	.	1r	.	1r	1r	.	1r	1r	1r	8GG-XL 8D-X	.	4c]	4r	.	1r	.
.	.	.	.	.	.	.	.	.	.	.	.	.	.	.	.	.	8FF 8C	.	.	.	.	.	.
8F'	8C'	.	8G-X'	.	8A-X'	.	.	.	.	.	.	.	.	.	.	.	8C 8G-X	.	4A-X	4A-	.	.	.
8r	8r	.	8r	.	8r	.	.	.	.	.	.	.	.	.	.	.	8BB-XJ 8F	.	.	.	.	.	.
4r	4r	.	4r	.	4r	.	.	.	.	.	.	.	.	.	.	.	8AA-XL 8E-X	.	4B-	4B-	.	.	.
.	.	.	.	.	.	.	.	.	.	.	.	.	.	.	.	.	8GG- 8D-	.	.	.	.	.	.
8F'	8C'	.	8G-'	.	8A-'	.	.	.	.	.	.	.	.	.	.	.	8FF 8C	.	8A-L	8A-L	.	.	.
8r	8r	.	8r	.	8r	.	.	.	.	.	.	.	.	.	.	.	8CJ 8G-	.	8B-J	8B-J	.	.	.
*	*	*	*	*	*	*	*	*	*	*	*	*	*	*	*	*	*	*	*v	*v	*	*	*
=165	=165	=165	=165	=165	=165	=165	=165	=165	=165	=165	=165	=165	=165	=165	=165	=165	=165	=165	=165	=165	=165	=165
!	!	!	!	!	!	!	!	!	!	!	!	!	!	!	!	!	!	!	!LO:TX:a:t=a 2	!	!	!
1r	1r	.	1r	.	1r	.	1r	.	1r	.	1r	1r	.	1r	1r	1r	8BB-XL 8F	.	4c	.	1r	.
.	.	.	.	.	.	.	.	.	.	.	.	.	.	.	.	.	8AA-X 8E-X	.	.	.	.	.
.	.	.	.	.	.	.	.	.	.	.	.	.	.	.	.	.	8GG-X 8D-X	.	8A-XL	.	.	.
.	.	.	.	.	.	.	.	.	.	.	.	.	.	.	.	.	8FFJ 8C	.	8B-J	.	.	.
.	.	.	.	.	.	.	.	.	.	.	.	.	.	.	.	.	8CL 8G-X	.	4c	.	.	.
.	.	.	.	.	.	.	.	.	.	.	.	.	.	.	.	.	8BB- 8F	.	.	.	.	.
.	.	.	.	.	.	.	.	.	.	.	.	.	.	.	.	.	8AA- 8E-	.	4d-X	.	.	.
.	.	.	.	.	.	.	.	.	.	.	.	.	.	.	.	.	8GG-J 8D-	.	.	.	.	.
=166	=166	=166	=166	=166	=166	=166	=166	=166	=166	=166	=166	=166	=166	=166	=166	=166	=166	=166	=166	=166	=166	=166
*	*	*	*	*	*	*	*	*	*	*	*	*	*	*	*	*	*	*	*^	*	*	*
8F'	8C'	.	8G-X'	.	8A-X'	.	1r	.	1r	.	1r	1r	.	1r	1r	1r	8FFL 8C	.	8A-XL	2ryy	.	1r	.
4.r	4.r	.	4.r	.	4.r	.	.	.	.	.	.	.	.	.	.	.	8GG-X 8D-X	.	8B-	.	.	.	.
.	.	.	.	.	.	.	.	.	.	.	.	.	.	.	.	.	8AA-X 8E-X	.	8c	.	.	.	.
.	.	.	.	.	.	.	.	.	.	.	.	.	.	.	.	.	8FFJ 8C	.	8d-XJ	.	.	.	.
2r	2r	.	2r	.	2r	.	.	.	.	.	.	.	.	.	.	.	8CL 8G-X	.	8cL	4ryy	.	.	.
.	.	.	.	.	.	.	.	.	.	.	.	.	.	.	.	.	8BB 8F	.	8A-J	.	.	.	.
.	.	.	.	.	.	.	.	.	.	.	.	.	.	.	.	.	8AA- 8E-	.	[4B-	8B-	.	.	.
.	.	.	.	.	.	.	.	.	.	.	.	.	.	.	.	.	8GG-J 8D-	.	.	8r	.	.	.
=167	=167	=167	=167	=167	=167	=167	=167	=167	=167	=167	=167	=167	=167	=167	=167	=167	=167	=167	=167	=167	=167	=167	=167
2r	2r	.	2r	.	2r	.	1r	.	1r	.	1r	1r	.	1r	1r	1r	8CL 8G-X	.	8B-L]	8r	.	1r	.
.	.	.	.	.	.	.	.	.	.	.	.	.	.	.	.	.	8BB-X 8F	.	8c	8cL	.	.	.
.	.	.	.	.	.	.	.	.	.	.	.	.	.	.	.	.	8AA-X 8E-X	.	8d-X	8d-	.	.	.
.	.	.	.	.	.	.	.	.	.	.	.	.	.	.	.	.	8GG-XJ 8D-X	.	8cJ	8cJ	.	.	.
!	!	!	!	!	!	!	!	!	!	!	!	!	!	!	!	!	!	!	!LO:TX:a:t=a 2	!	!	!	!
8F'	8C'	.	8G-X'	.	8A-X'	.	.	.	.	.	.	.	.	.	.	.	8FFL 8C	.	8A-XL	2ryy	.	.	.
8r	8r	.	8r	.	8r	.	.	.	.	.	.	.	.	.	.	.	8C 8G-	.	8B-	.	.	.	.
4r	4r	.	4r	.	4r	.	.	.	.	.	.	.	.	.	.	.	8BB- 8F	.	8c	.	.	.	.
.	.	.	.	.	.	.	.	.	.	.	.	.	.	.	.	.	8AA-J 8E-	.	8d-J	.	.	.	.
*	*	*	*	*	*	*	*	*	*	*	*	*	*	*	*	*	*	*	*v	*v	*	*	*
=168	=168	=168	=168	=168	=168	=168	=168	=168	=168	=168	=168	=168	=168	=168	=168	=168	=168	=168	=168	=168	=168	=168
8r	8r	.	8r	.	8r	.	1r	.	1r	.	1r	1r	.	1r	1r	1r	8GG-XL 8D-X	.	8cL	.	1r	.
8F'	8C'	.	8G-X'	.	8A-X'	.	.	.	.	.	.	.	.	.	.	.	8FF 8C	.	8A-X	.	.	.
4r	4r	.	4r	.	4r	.	.	.	.	.	.	.	.	.	.	.	8GG- 8D-	.	8B-	.	.	.
.	.	.	.	.	.	.	.	.	.	.	.	.	.	.	.	.	8AA-XJ 8E-X	.	8cJ	.	.	.
2r	2r	.	2r	.	2r	.	.	.	.	.	.	.	.	.	.	.	8FFL 8C	.	8dL	.	.	.
.	.	.	.	.	.	.	.	.	.	.	.	.	.	.	.	.	8GG- 8E-	.	8e-	.	.	.
.	.	.	.	.	.	.	.	.	.	.	.	.	.	.	.	.	8AA- 8E-	.	8d-X	.	.	.
.	.	.	.	.	.	.	.	.	.	.	.	.	.	.	.	.	8BB-XJ 8G-X	.	8cJ	.	.	.
=169	=169	=169	=169	=169	=169	=169	=169	=169	=169	=169	=169	=169	=169	=169	=169	=169	=169	=169	=169	=169	=169	=169
!	!	!	!	!	!	!	!	!	!	!	!	!	!	!	!	!	!	!	!LO:TX:a:t=a 2	!	!	!
8F	8CL	<	8G-X	.	8A-XL	<	2r	.	1r	.	1r	1r	.	1r	1r	1r	8CL 8G-X	<	8A-XL	<	1r	.
4.r	8BB-X	.	4.r	.	8B-X	.	.	.	.	.	.	.	.	.	.	.	8BB-X 8A-X	.	8B-	.	.	.
.	8C	.	.	.	8c	.	.	.	.	.	.	.	.	.	.	.	8C 8A-	.	8c	.	.	.
.	8D-XJ	.	.	.	8d-XJ	.	.	.	.	.	.	.	.	.	.	.	8D-XJ 8c	.	8d-XJ	.	.	.
4r	8E-XL	.	4r	.	8e-XL	.	4r	.	.	.	.	.	.	.	.	.	8E-XL 8c	.	8e-L	.	.	.
.	8FJ	.	.	.	8fJ	.	.	.	.	.	.	.	.	.	.	.	8FJ 8e-X	.	8fJ	.	.	.
4B-X'	4Gn'	[	4D-X' 4Gn	.	4gn'	[	4c'	f	.	.	.	.	.	.	.	.	4Gn' 4d-X	[	4g'	[	.	.
=170	=170	=170	=170	=170	=170	=170	=170	=170	=170	=170	=170	=170	=170	=170	=170	=170	=170	=170	=170	=170	=170	=170
*	*	*	*	*	*	*	*	*	*	*	*	*	*	*	*^	*^	*	*	*	*	*	*
!	!	!	!	!	!	!	!	!	!	!	!	!LO:TX:b:i:t={	!	!	!	!	!LO:TX:b:i:t={ marcatissimo	!	!	!	!	!	!	!
4r	4r	.	4r	.	4r	.	4r	.	4r	.	4r	4r	sf	4r	4r	4ryy	4r	4ryy	1r	.	4r	.	4r	.
!	!	!	!	!	!	!	!LO:TX:b:i:t={ a punta d'arco	!	!	!	!	!	!	!	!	!	!	!	!	!	!	!	!LO:TX:a:t=a 2	!
8BB-X'	8FL	.	8c-XL	.	8d-XL	.	8dd-XL	.	8BB-X'	sf	8BBB-X' 8BB-X	8F' 8c-X	sf	8d-X'	4d-X^	4d-'	4d-X^	4d-'	.	.	(<8d-XL	f	(>8aa-XL	f
8r	8E-XJ	.	8B-XJ	.	8e-XJ	.	8ee-XJ	.	8r	.	8r	8r	.	8r	.	.	.	.	.	.	8e-J	.	8bb-XJ	.
2r	8D-XL	.	8A-XL	.	8fL	.	8ffL	.	2r	.	2r	2r	.	2r	4e-X^	4e-'	4e-X^	4e-'	.	.	8fL	.	8ccc-XL	.
.	8C-X	.	8G-X	.	8g-X	.	8gg-X	.	.	.	.	.	.	.	.	.	.	.	.	.	8g-X	.	8ddd-X	.
.	8BB-X	.	8F	.	8a-X	.	8aa-X	.	.	.	.	.	.	.	8d-^L	8d-'L	8d-^L	8d-'L	.	.	8a-X)	.	8eee-X)	.
.	8FJ	.	8c-J	.	8d-J	.	8dd-J	.	.	.	.	.	.	.	8e-^J	8e-'J	8e-^J	8e-'J	.	.	(<8d-J	.	(>8aa-J	.
=171	=171	=171	=171	=171	=171	=171	=171	=171	=171	=171	=171	=171	=171	=171	=171	=171	=171	=171	=171	=171	=171	=171	=171	=171
!	!	!	!	!	!	!	!LO:TX:b:i:t={ simile	!	!	!	!	!	!	!	!	!	!	!	!	!	!	!	!	!
2r	8E-XL	.	8B-XL	.	8e-XL	.	8ee-XL	.	2r	.	2r	2r	.	2r	2f^	4f'	[2f^	4f'	1r	.	8e-L	.	8bb-XL	.
.	8D-X	.	8A-X	.	8f	.	8ff	.	.	.	.	.	.	.	.	.	.	.	.	.	8f	.	8ccc-X	.
.	8C-X	.	8G-X	.	8g-X	.	8gg-X	.	.	.	.	.	.	.	.	4r	.	4r	.	.	8g-X	.	8ddd-X	.
.	8BB-XJ	.	8FJ	.	8a-XJ	.	8aa-XJ	.	.	.	.	.	.	.	.	.	.	.	.	.	8a-XJ	.	8eee-XJ	.
4r	8FL	.	8c-XL	.	8bL	.	8bbL	.	4r	.	4r	4r	.	4r	4r	4r	4f]	4r	.	.	8b-L)	.	8fffL)	.
.	8E-	.	8B-	.	8c-X	.	8cc-X	.	.	.	.	.	.	.	.	.	.	.	.	.	(<8c-X	.	(>8gg-X	.
8BB-X'	8D-	.	8A-	.	8d-X	.	8dd-X	.	8BB-X'	.	8BBB-X' 8BB-X	8F' 8c-X	.	8d-X'	4d-X^	4d-'	4d-X^	4d-'	.	.	8d-X	.	8aa-X	.
8r	8C-J	.	8G-J	.	8e-J	.	8ee-J	.	8r	.	8r	8r	.	8r	.	.	.	.	.	.	8e-J	.	8bb-J	.
=172	=172	=172	=172	=172	=172	=172	=172	=172	=172	=172	=172	=172	=172	=172	=172	=172	=172	=172	=172	=172	=172	=172	=172	=172
2r	8BB-XL	.	8FL	.	8fL	.	8ffL	.	2r	.	2r	2r	.	2r	4e-X^	4e-'	4e-X^	4e-'	1r	.	8fL)	.	8ccc-XL)	.
.	8F	.	8c-X	.	8d-X	.	8dd-X	.	.	.	.	.	.	.	.	.	.	.	.	.	(<8d-X	.	(>8aa-X	.
.	8E-X	.	8B-X	.	8e-X	.	8ee-X	.	.	.	.	.	.	.	8d-X^L	8d-'L	8d-X^L	8d-'L	.	.	8e-	.	8bb-X	.
.	8D-XJ	.	8A-XJ	.	8fJ	.	8ffJ	.	.	.	.	.	.	.	8e-^J	8e-'J	8e-^J	8e-'J	.	.	8fJ	.	8ccc-J	.
4r	8C-XL	.	8G-XL	.	8g-XL	.	8gg-XL	.	4r	.	4r	4r	.	4r	4f^	4f'	4f^	4f'	.	.	8g-XL	.	8ddd-XL	.
.	8BB-	.	8F	.	8a-X	.	8aa-X	.	.	.	.	.	.	.	.	.	.	.	.	.	8a-X	.	8eee-X	.
8BB-X'	8F	.	8c-	.	8b-X	.	8bb-X	.	8BB-X'	.	8BBB-X' 8BB-X	8F' 8c-X	.	8d-X'	8d-^L	8d-'L	8d-^L	8d-'L	.	.	8b-	.	8fff-X	.
8r	8E-J	.	8B-J	.	8cc-XJ	.	8ccc-XJ	.	8r	.	8r	8r	.	8r	8e-^J	8e-'J	8e-^J	8e-'J	.	.	8cc-XJ)	.	8ggg-XJ)	.
=173	=173	=173	=173	=173	=173	=173	=173	=173	=173	=173	=173	=173	=173	=173	=173	=173	=173	=173	=173	=173	=173	=173	=173	=173
1r	8D-XL	.	8A-XL	.	8d-XL	.	8dd-XL	.	1r	.	1r	1r	.	1r	4f^	4f'	4f^	4f'	1r	.	(<8d-XL	.	(>8aa-XL	.
.	8C-X	.	8G-X	.	8e-X	.	8ee-X	.	.	.	.	.	.	.	.	.	.	.	.	.	8e-	.	8bb-X	.
.	8BB-X	.	8F	.	8f	.	8ff	.	.	.	.	.	.	.	[4g-X^	4g-'	[4g-X^	4g-'	.	.	8f	.	8ccc-X	.
.	8FJ	.	8c-XJ	.	8g-XJ	.	8gg-XJ	.	.	.	.	.	.	.	.	.	.	.	.	.	8g-XJ	.	8ddd-XJ	.
.	8E-XL	.	8B-XL	.	8a-XL	.	8aa-XL	.	.	.	.	.	.	.	4g-]	4r	4g-]	4r	.	.	8a-XL	.	8eee-XL	.
.	8D-	.	8A-	.	8b-X	.	8bb-X	.	.	.	.	.	.	.	.	.	.	.	.	.	8b-	.	8fff	.
.	8C-	.	8G-	.	8cc-X	.	8ccc-X	.	.	.	.	.	.	.	4f^	4f'	4f^	4f'	.	.	8cc-X)	.	8ggg-X)	.
.	8BB-J	.	8FJ	.	8d-J	.	8dd-J	.	.	.	.	.	.	.	.	.	.	.	.	.	(<8d-J	.	(>8aa-J	.
=174	=174	=174	=174	=174	=174	=174	=174	=174	=174	=174	=174	=174	=174	=174	=174	=174	=174	=174	=174	=174	=174	=174	=174	=174
4r	8FL	.	8c-XL	.	8e-XL	.	8ee-XL	.	4r	.	4r	4r	.	4r	4f^	4r	4f^	4r	1r	.	8e-L	.	8bb-XL	.
.	8E-X	.	8B-X	.	8f	.	8ff	.	.	.	.	.	.	.	.	.	.	.	.	.	8f)	.	8ccc-X)	.
8BB-X'	8D-X	.	8A-X	.	8d-X	.	8dd-X	.	8BB-X'	.	8BBB-X' 8BB-X	8F' 8c-X	.	8d-X'	8d-X^L	8d-'L	8d-X^L	8d-'L	.	.	(<8d-X	.	(>8aa-X	.
8r	8C-XJ	.	8G-XJ	.	8e-J	.	8ee-J	.	8r	.	8r	8r	.	8r	8e-X^J	8e-'J	8e-X^J	8e-'J	.	.	8e-J	.	8bb-J	.
2r	8BB-XL	.	8FL	.	8fL	.	8ffL	.	2r	.	2r	2r	.	2r	4f^	4f'	4f^	4f'	.	.	8fL	.	8ccc-L	.
.	8F	.	8c-	.	8g-X	.	8gg-X	.	.	.	.	.	.	.	.	.	.	.	.	.	8g-X	.	8ddd-X	.
.	8E-	.	8B-	.	8a-X	.	8aa-X	.	.	.	.	.	.	.	[4g-X^	4g-'	[4g-X^	4g-'	.	.	8a-X	.	8eee-X	.
.	8D-J	.	8A-J	.	8b-XJ	.	8bb-XJ	.	.	.	.	.	.	.	.	.	.	.	.	.	8b-J)	.	8fffJ)	.
*	*	*	*	*	*	*	*	*	*	*	*	*	*	*	*v	*v	*	*	*	*	*	*	*	*
*	*	*	*	*	*	*	*	*	*	*	*	*	*	*	*	*v	*v	*	*	*	*	*	*
=	=	=	=	=	=	=	=	=	=	=	=	=	=	=	=	=	=	=	=	=	=	=
*-	*-	*-	*-	*-	*-	*-	*-	*-	*-	*-	*-	*-	*-	*-	*-	*-	*-	*-	*-	*-	*-	*-
!!!system-decoration: [(s1,s2,s3)][([(s4,s5)]s6[(s7,s8)])][(s9)][(s10,s11,s12,s13,s14)]
!!!RDF**kern: > = above
!!!RDF**kern: < = below
!!!CDT: 1882/06/17-1971/04/06
!!!CBL: Lomonosov (Oranienbaum), Russia
!!!CDL: New York, United States
!!!CNT: Russian, French, American
!!!AGN: Orchestral; Symphonic
!!!MCN: Stravinsky, Igor
!!!MDT: 1940/11/07
!!!MGN: Chicago Symphony Orchestra
!!!MLC: Chicago, Illinois, United States of America
!!!MPD: 1940
!!!MPN:
!!!ODT: 1940
!!!PDT: 1948
!!!excerpt-start-measure: 163
!!!excerpt-end-measure: 174
!!!excerpt-start-time: 4:44
!!!excerpt-end-time: 4:59
!!!EEV: 2020/01/25
!!!ONB: Converted from MusicXML on 2020/01/25
